projects/seb-pictograms/svg/regular/57-Picto-Regular_black.svg

<svg xmlns="http://www.w3.org/2000/svg" viewBox="0 0 170 170"><path d="M85 149.5a13.3 13.3 0 01-13.3-13.3h-6a19.3 19.3 0 1038.6 0h-6A13.3 13.3 0 0185 149.5zm55.2-27l-22.4-46.4V51.2a19.3 19.3 0 00-19.4-19.3H88V17.5h-6v14.4H71.6a19.3 19.3 0 00-19.4 19.3v24.9l-22.4 46.4a3 3 0 002.7 4.3h105a3 3 0 002.7-4.3zm-102.9-1.7L57 80h36.6v-6H58.2V51.2a13.3 13.3 0 0113.4-13.3h26.8a13.3 13.3 0 0113.3 13.3v25.6a3 3 0 00.3 1.3l20.6 42.7z"/></svg>

<svg id="PIKTO_REGULAR" xmlns="http://www.w3.org/2000/svg" viewBox="0 0 170 170"><title>regular_black</title><path d="M85,149.5a13.3,13.3,0,0,1-13.3-13.3h-6a19.3,19.3,0,1,0,38.6,0h-6A13.3,13.3,0,0,1,85,149.5Z"/><path d="M140.2,122.5,117.8,76.1V51.2A19.3,19.3,0,0,0,98.4,31.9H88V17.5H82V31.9H71.6A19.3,19.3,0,0,0,52.2,51.2V76.1L29.8,122.5a3,3,0,0,0,2.7,4.3H137.5a3,3,0,0,0,2.7-4.3ZM37.3,120.8,57,80H93.6V74H58.2V51.2A13.3,13.3,0,0,1,71.6,37.9H98.4a13.3,13.3,0,0,1,13.3,13.3V76.8a3,3,0,0,0,.3,1.3l20.6,42.7Z"/></svg>
